packages/components/src/telekom/icons/weather/rain/default.svg

<?xml version="1.0" encoding="UTF-8"?>
<svg width="24px" height="24px" viewBox="0 0 24 24" version="1.1" xmlns="http://www.w3.org/2000/svg" xmlns:xlink="http://www.w3.org/1999/xlink">
    <title>icon/weather/rain/default</title>
    <g id="icon/weather/rain/default" stroke="none" stroke-width="1" fill="none" fill-rule="evenodd">
        <path d="M11.9565,17.1345 C12.0658333,17.0345 12.2332407,17.1063519 12.250832,17.2394383 L12.25,17.292 L11.651,21.1205 C11.52,21.957 10.7355,22.5295 9.8985,22.3985 C8.67385714,22.2070893 8.18704783,20.7320249 9.0034024,19.8481771 L9.0995,19.7525 L11.9565,17.1345 Z M10.394,11.935 C10.5033333,11.835 10.6707407,11.9068519 10.688332,12.0399383 L10.6875,12.0925 L10.0255,16.3255 C9.8825,17.241 9.0245,17.8665 8.109,17.723 C6.76789655,17.513 6.23549703,15.8962747 7.13330522,14.9304021 L7.235,14.8295 L10.394,11.935 Z M16.5615,10.305 C16.6708333,10.2045556 16.8378457,10.2767531 16.8557003,10.4099218 L16.855,10.4625 L16.0855,15.382 C15.9215,16.43 14.939,17.1465 13.891,16.9825 C12.3522903,16.7415323 11.7430812,14.8822503 12.7811732,13.7769309 L12.8905,13.669 L16.5615,10.305 Z M13.5115,0.5645 C16.7275,0.5645 19.5605,2.5685 20.661,5.584 C22.548,6.578 23.75,8.555 23.75,10.7115 C23.75,13.8292674 21.2890817,16.3789105 18.2202138,16.4958123 L18,16.5 L17.3045,16.5 C17.397875,16.293 17.4715625,16.0739063 17.5232422,15.84525 L17.5675,15.6135 L17.6635,15 L18,15 C20.3435,15 22.25,13.076 22.2495,10.7115 C22.2495,9.10358696 21.3482902,7.62971172 19.9361892,6.89854397 L19.7405,6.8035 L19.4375,6.6655 L19.3365,6.348 C18.521,3.786 16.18,2.0645 13.5115,2.0645 C12.0911875,2.0645 10.7218516,2.56503711 9.62431738,3.47918201 L9.4085,3.6675 L9.08,3.9685 L8.658,3.823 C8.3185,3.706 7.9695,3.6465 7.6215,3.6465 C6.3655,3.6465 5.2755,4.378 4.7475,5.441 C4.434375,6.072125 4.40165625,6.59103125 4.41794531,7.07513281 L4.442,7.5505 L3.9765,7.76 C2.624,8.3685 1.75,9.725 1.75,11.2155 C1.75,13.262 3.3685,14.93 5.3815,14.9935 C5.211,15.4665 5.1515,15.975 5.2215,16.4855 C2.456,16.3385 0.25,14.0345 0.25,11.2155 C0.25,9.3035 1.282,7.5495 2.917,6.6175 C3.0565,4.128 5.1135,2.146 7.6215,2.146 C7.9905,2.146 8.3585,2.191 8.7215,2.2795 C10.0785,1.1705 11.7635,0.5645 13.5115,0.5645 Z" id="Shape" fill="#262626" fill-rule="nonzero"></path>
    </g>
</svg>

<svg width="24" height="24" xmlns="http://www.w3.org/2000/svg"><path d="M11.957 17.134c.109-.1.276-.028.294.105l-.001.053-.599 3.828a1.534 1.534 0 01-1.752 1.278c-1.225-.19-1.712-1.666-.896-2.55l.097-.095 2.857-2.619zm-1.563-5.199c.11-.1.277-.028.294.105v.053l-.663 4.233a1.676 1.676 0 01-1.916 1.397c-1.341-.21-1.874-1.827-.976-2.793l.102-.1 3.159-2.895zm6.167-1.63c.11-.1.277-.028.295.105l-.001.053-.77 4.919a1.92 1.92 0 01-2.194 1.6c-1.539-.24-2.148-2.1-1.11-3.205l.11-.108 3.67-3.364zm-3.05-9.74a7.596 7.596 0 017.15 5.019 5.805 5.805 0 013.089 5.127c0 3.118-2.46 5.668-5.53 5.785L18 16.5h-.695c.093-.207.167-.426.218-.655l.044-.232.096-.613H18c2.343 0 4.25-1.924 4.25-4.289A4.3 4.3 0 0019.936 6.9l-.195-.096-.303-.138-.101-.317c-.816-2.562-3.157-4.284-5.825-4.284-1.42 0-2.79.501-3.888 1.415l-.216.188-.328.302-.422-.146a3.178 3.178 0 00-1.036-.176A3.214 3.214 0 004.747 5.44c-.313.631-.345 1.15-.33 1.634l.025.476-.466.209a3.791 3.791 0 00-2.226 3.456c0 2.046 1.619 3.714 3.631 3.777-.17.473-.23.982-.16 1.492C2.456 16.34.25 14.035.25 11.215a5.299 5.299 0 012.667-4.598c.14-2.489 2.197-4.471 4.705-4.471.369 0 .736.045 1.1.134a7.558 7.558 0 014.79-1.715z" fill="#000" fill-rule="evenodd"/></svg>
